X:1
T:??
Q:"Andante"
M:4/4
L:1/4
K:D
V:1
[V:1] |A/G/F/A/           B>d |A/zG/F/ z/E/z/|
[V:1] |D/E/D/C/           D>F |F/>E z/z  D/E/|
[V:1] |FAB                D/E/|D/z/xxx       |
[V:1] |C A/A/G/G/ F//G//F/G/F/|F/G/A/F/  B>d |
[V:1] |A/zG/F/          z/B/c/|e/d/c/d/f/z e/|
[V:1] |f/d/e/z/     d/c/B/c/d/|